X:1
T:Title
%%score { ( 1 3 ) | ( 2 4 ) }
L:1/8
M:3/4
K:G
V:1 treble nm="Grand Piano"
V:3 treble 
V:2 treble 
V:4 treble 
V:1
 z2 z2[Q:1/4=100] GA | B4 AB | [Fd]4 [CFA][DFB] | G4 GA | B4 AB | [Fd]4 z2 |[M:2/4] [DFA]4 | %7
[M:1/4] [DG][DFA] |[M:3/4] [DGB]4 [CFA][DFB] | G4 z2 |[M:7/8] D2 G3 [EG][^DA] |[M:3/4] B4 AB | %12
 [Fd]4 [FA][FB] |[M:2/4] [DG]4 |[M:1/4] [CE][EG] |[M:3/4] [Ec]4 [Ec][Ec] | [Ec]4 [EG][^DA] | %17
[M:7/8] B2 d3 Bc |[M:3/4] d4 [Ac]B | A4 (3GA[^CEB] |[M:2/4] [DFA]4 |[M:1/4] [DG][DFA] | %22
[M:3/4] [DGB]4 [CFA][DFB] | G4 z2 |[M:7/8] D2 G3 [EG][^DA] |[M:3/4] B4 AB | [Fd]4 [FA][FB] | %27
[M:6/4] .[DG]6 z6 |] %28
V:2
 z2 z2 [G,B,D][G,CD] | [G,DG]4 [G,CG][G,DG] | z2 A,2 D,D, | [G,B,]4[K:treble] [G,B,D][G,CD] | %4
 [G,DG]4 [G,CG][G,DG] | D2 z2[K:treble] [G,B,G][G,DG] |[M:2/4][K:bass] D,4 |[M:1/4] B,,D, | %8
[M:3/4] G,4 D,D, | z2 G,2 [C,G,C][E,G,C] |[M:7/8] B,2 [B,D]3 [C,G,][C,G,] | %11
[M:3/4] [D,G,D]4 [D,G,D][D,G,D] | [D,A,]4 [D,C][D,D] |[M:2/4] [G,B,]4 |[M:1/4] [C,G,][C,G,] | %15
[M:3/4] [C,G,]4 [C,G,][C,G,] | [C,G,]4 [C,C][C,G,] |[M:7/8][K:treble] D2 [B,G]3 [G,G][G,A,G] | %18
[M:3/4] [G,B,G]4 [F,D][G,DG] | [A,DF]4[K:bass] (3:2:2[A,^CE]2 A, |[M:2/4] D,4 |[M:1/4] B,,D, | %22
[M:3/4] G,4 D,D, | z2 G,2 [C,G,C][E,G,C] |[M:7/8] B,2 [B,D]3 [C,G,][C,G,] | %25
[M:3/4] [D,G,D]4 [D,G,D][D,G,D] | [D,A,]4 [D,C][D,D] |[M:6/4] .[G,B,]6 z6 |] %28
V:3
 x6 | x6 | D2 z2 z2 | x6 | x6 | z2 A,2 dB |[M:2/4] x4 |[M:1/4] x2 |[M:3/4] x6 | B,2 E2 EG | %10
[M:7/8] x7 |[M:3/4] x6 | x6 |[M:2/4] x4 |[M:1/4] x2 |[M:3/4] x6 | x6 |[M:7/8] x7 |[M:3/4] x6 | x6 | %20
[M:2/4] x4 |[M:1/4] x2 |[M:3/4] x6 | B,2 E2 EG |[M:7/8] x7 |[M:3/4] x6 | x6 |[M:6/4] x12 |] %28
V:4
 x6 | x6 | D,4 z2 | x4[K:treble] x2 | x6 | D,4[K:treble] z2 |[M:2/4][K:bass] x4 |[M:1/4] x2 | %8
[M:3/4] x6 | E,4 z2 |[M:7/8] G,-G,- G,3 z2 |[M:3/4] x6 | x6 |[M:2/4] x4 |[M:1/4] x2 |[M:3/4] x6 | %16
 x6 |[M:7/8][K:treble] G,-G,- G,3 z2 |[M:3/4] x6 | x4[K:bass] x2 |[M:2/4] x4 |[M:1/4] x2 | %22
[M:3/4] x6 | E,4 z2 |[M:7/8] G,-G,- G,3 z2 |[M:3/4] x6 | x6 |[M:6/4] x12 |] %28

